X:1
T:Fini le bien
T:Fini le bien
T:Pierre Sandrin
C:Pierre Sandrin
%%score [ 1 [ 2 3 ] 4 ]
L:1/8
Q:1/4=76
M:2/2
K:C
V:1 treble nm="Superius" snm="S"
V:2 treble-8 nm="Tenor 1" snm="T 1"
V:3 treble-8 nm="Tenor 2" snm="T 2"
V:4 bass nm="Bass" snm="B"
V:1
 D4 F3 G | AB c3 B A2- | A2 G2 A4 | z2 A2 A4- | A2 A2 G2 A2 | GF F4 E2 | F4 z2 F2 | F2 E2 F2 F2 | %8
w: Fi- ni _|_ _ _ _ _|* le bien,|le mal|_ soub- dain com-|* * men- *|ce, tes-|moings en _ sont|
w: Car tout _|_ _ _ _ _|* le bien|trou- vé|_ par l'es- pe-|* * ran- *|ce, le|mal nous l'a re-|
 E6 E2 | EDEF G2 A2 | DEFD E2 F2 | ED D4 C2 | D4 z4 :| A8 | F4 F4 | E8 | z2 E2 E4- | E2 G2 F2 F2 | %18
w: noz mal-|heurs _ _ _ _ qu'on|peult _ _ _ _ _||veoir,|O|tant d'en-|nuy|qui as|_ vou- lu pour-|
w: mis en|son _ _ _ _ _|_ _ _ _ _ _|* * * pou-|voir,||||||
 E4 A4 | A2 A2 G4- | G2 G2 A2 c2 | BA A4 G2 | A4 F4 | F2 F2 EDEF | G2 A2 G2 F2 | F2 E2 F4 | %26
w: veoir de|va- rier la|_ fer- me- té|ay- * mé- *|e, il|au- roit bien _ _ _|_ qui scau- roit|ton _ sca-|
w: ||||||||
 E4 z4 |: A4 A2 A2 | A4 G2 G2 | c6 c2 | AB cA B2 A2- |"^#" A2 G2 A2 E2 | A6 A2 | F2 F2 DEFD | %34
w: voir.|Doul- ce me-|moi- re- en|plai- sir|con- * * * som- mé-|* * e,- en-|plai- sir-|con- som- mé- * * *|
w: ||||||||
 E2 D4 C2 | D8 :| %36
w: |e.|
w: ||
V:2
 A4 d4 | c3 d e4- | e4 c4 | z2 f2 f4- | f2 f2 e4- | e2 c2 c4 | A4 z2 c2 |"^b" c2 c2 A2 B2 | %8
w: Fi- ni|le- * *|* bien,|le mal|_ soub- dain|_ com- men-|ce, tes-|moings en sont noz|
w: Car tout|le- * *|* bien|trou- vé|_ par l'es-|* pe- ran-|ce, le|mal nous l'a re-|
 c2 c2 B2 B2 | c6 c2 | B2 c4 A2 |"^b" B2 G2 A4 | A4 z4 :| f8 | d4 d4 | B8 | z2 c2 c4- | %17
w: mal- heurs qu'on peult|veoir, qu'on|peult _ _||veoir,|O|tant d'en-|nuy|qui as|
w: mis en son pou-|voir, en|son _ _|_ _ pou-|voir,|||||
 c2 c2 F2 F2 | G4 e4 | f2 f2 e4 | d4 f2 g2 | f2 f2 e4 | c4 d4 | c2 A2 G2 G2 | c2 e2 e2 d2- | %25
w: _ vou- lu pour-|veoir de|va- rier la|fer me té-|ay- mé- *|e, il|au- roit bien qui|scau- roit ton sca-|
w: ||||||||
"^b" d2 c4 B2 | c4 z4 |: f4 f2 e2 | f4 e4 | z2 e2 e4- | e2 f2 g2 d2 | e4 c2 A2 | c6 c2 | %33
w: |voir.|Doul- ce me-|moi- re|en plai|_ sir con som-|mé- e, en|plai- sir|
w: ||||||||
 d2 d2 AG AB | c2 G2 A4 | F8 :| %36
w: con- som- mé- * * *||e.|
w: |||
V:3
 z4 A4- | A4 c4 | B4 A4- | A4 z2 A2 | c6 c2 | B2 A2 G4 | F4 z2 A2 | A2 G2 F2 F2 | G2 A2 A2 G2 | %9
w: Fi-|ni le-|* bien,|_ le|mal soub-|dain com- men-|ce, tes-|moings en sont noz|mal- heurs qu'on peult|
w: Car|_ tout|le bien|_ trou-|vé par|l'es- pe- ran-|ce, le|mal nous l'a re-|mis en son pou-|
 A2 E2 EDEF | G2 A2 G2 F2 | GFED E4 | D8 :| d8 |"^b" A4 B2 A2- |"^#" A2 GF G4 | z2 A2 A2 A2 | %17
w: veoir, qu'on peult _ _ _|_ _ _ _||veoir,|O|tant d'en- *|* * * nuy|qui as vou-|
w: voir, en son _ _ _|_ _ _ _|* * * * pou-|voir,|||||
"^b" G2 c4 B2 | c4 c4 | d2 d2 B4- | B2 B2 c2 e2 | d3 c B4 | A8 | A4 c2 c2 | G2 c2 cB AG | %25
w: lu pour- veoir|de va-|rier la fer-|* me- té ay-|* * mé-|e,|il au- roit|bien qui scau- * * *|
w: ||||||||
 A2 G2 G2 F2 | G4 z4 |: d4 d2 c2 | d4 B4 | z2 A2 c4- | c2 c2 dc BA | B4 A4 | z2 E2 A4- | %33
w: * roit ton sca-|voir.|Doul- ce me-|moi- re|en plai|_ sir con _ som- *|mé- e,|en plai|
w: ||||||||
 A2 A2 F2 F2 | GFED E4 | D8 :| %36
w: _ sir con som-|mé- * * * *|e.|
w: |||
V:4
 D,8 | A,,4 A,,4 | E,4 A,,4 | z2 D,2 F,4- | F,2 F,2 C,3 D, | E,2 F,2 C,4 | F,,4 z2 F,2 | %7
w: Fi-|ni le|_ bien,|le mal|_ soub- dain com-|men- * *|ce, tes-|
w: Car|tout le|_ bien|trou- ve|_ par l'es- pe-|ran- * *|ce, le|
"^#" F,2 C,2 D,2 D,2 | C,2 A,,2 E,2 E,2 | A,,4 z2 A,,2 | G,,2 F,,2 C,2 D,2 |"^b" G,,2 B,,2 A,,4 | %12
w: moings en sont noz|mal- heurs qu'on peult|veoir, qu'on|peult _ _ _||
w: mal nous l'a re-|mis en son pou-|voir, en|son _ _ _|_ _ pou-|
 D,4 z4 :| D,8 | D,4 D,4 | E,8 |"^#" z2 A,,2 A,,2 A,,2 | C,4 D,4 | C,4 A,,4 | D,2 D,2 E,4 | %20
w: veoir,|O|tant d'en-|nuy|qui as vou-|lu pour-|veoir de|va- rier la|
w: voir,||||||||
 G,4 F,2 C,2 | D,2 D,2 E,4 | A,,4 D,4 | F,2 F,2 C,4- | C,2 A,,2 E,2 F,2- | F,2 C,2 D,4 | C,4 z4 |: %27
w: fer- me- té|ay- mé- *|e, il|au- roit bien|_ qui scau- roit|_ ton sca-|voir.|
w: |||||||
 D,4 D,2 A,,2 | D,4 E,4 | z2 A,,2 A,4- |"^#" A,2 A,2 G,2 F,2 | E,4 A,,4- | A,,4 A,,4 | D,6 D,2 | %34
w: Doul- ce me-|moi- re|en plai-|* sir con som-|mé- e,|_ en|plai- sir|
w: |||||||
"^b" C,2 B,,2 A,,4 | D,8 :| %36
w: con som- mé-|e.|
w: ||

